X: 78
T:Tres morillas me enamoran
N:15th century Spanish
B:Cancionero Musical, Madrid 1928
M:2/4
L:1/8
Q:1/4=100
K:BPhr
  Be|dB GA|BA GF |E2 EF|G A<B A|B4-   |B2||
  Be|dB GA|Bc B2-|B2 Be|dB   GA|Bc B2-|B2
|:Be|dB GA|BA GF |E2 EF|G A<B A|B4-   |B2:|

This is an example from Giresun, on the Black Sea coast of Turkey:

